src/cmd/32/transformdialog.svg

<svg viewBox="0 0 32 32" xmlns="http://www.w3.org/2000/svg"><path d="m4 4v5h5v-5zm19 0v5h5v-5zm-18 1h3v3h-3zm19 0h3v3h-3zm-13 1v1h4v-1zm6 0v1h4v-1zm-5 3v10 1h1 10v-1h-10v-10zm-6 2v4h1v-4zm19 0v4h1v-4zm-19 6v4h1v-4zm19 0v4h1v-4zm-21 6v5h5v-5zm1 1h3v3h-3zm6 1v1h4v-1z" fill="#232629"/><path d="m19 26c-.55228 0-1 .44771-1 1s.44772 1 1 1 1-.44771 1-1-.44772-1-1-1zm4 0c-.55228 0-1 .44771-1 1s.44772 1 1 1 1-.44771 1-1-.44772-1-1-1zm4 0c-.55228 0-1 .44771-1 1s.44772 1 1 1 1-.44771 1-1-.44772-1-1-1z" fill="#e95420"/></svg>

<?xml version="1.0" encoding="UTF-8" standalone="no"?>
<svg
   xmlns:dc="http://purl.org/dc/elements/1.1/"
   xmlns:cc="http://creativecommons.org/ns#"
   xmlns:rdf="http://www.w3.org/1999/02/22-rdf-syntax-ns#"
   xmlns:svg="http://www.w3.org/2000/svg"
   xmlns="http://www.w3.org/2000/svg"
   xmlns:sodipodi="http://sodipodi.sourceforge.net/DTD/sodipodi-0.dtd"
   xmlns:inkscape="http://www.inkscape.org/namespaces/inkscape"
   viewBox="0 0 32 32"
   version="1.1"
   id="svg6"
   sodipodi:docname="transformdialog.svg"
   inkscape:version="0.92.4 (5da689c313, 2019-01-14)">
  <metadata
     id="metadata12">
    <rdf:RDF>
      <cc:Work
         rdf:about="">
        <dc:format>image/svg+xml</dc:format>
        <dc:type
           rdf:resource="http://purl.org/dc/dcmitype/StillImage" />
      </cc:Work>
    </rdf:RDF>
  </metadata>
  <defs
     id="defs10" />
  <sodipodi:namedview
     pagecolor="#ffffff"
     bordercolor="#666666"
     borderopacity="1"
     objecttolerance="10"
     gridtolerance="10"
     guidetolerance="10"
     inkscape:pageopacity="0"
     inkscape:pageshadow="2"
     inkscape:window-width="1920"
     inkscape:window-height="1011"
     id="namedview8"
     showgrid="true"
     inkscape:zoom="20.85965"
     inkscape:cx="17.538355"
     inkscape:cy="17.716325"
     inkscape:window-x="0"
     inkscape:window-y="32"
     inkscape:window-maximized="1"
     inkscape:current-layer="svg6">
    <inkscape:grid
       type="xygrid"
       id="grid853" />
  </sodipodi:namedview>
  <path
     id="path867"
     d="m 17,25 v 1 h 4 v -1 z m 6,-2 v 5 h 5 v -5 z m 1,1 h 3 v 3 h -3 z m -13,1 v 1 h 4 V 25 Z M 4,23 v 5 h 5 v -5 z m 1,1 h 3 v 3 H 5 Z m 20,-7 v 4 h 1 V 17 Z M 6,17 v 4 h 1 v -4 z m 19,-6 v 4 h 1 V 11 Z M 6,11 v 4 h 1 v -4 z m 6,-2 v 10 1 h 1 10 V 19 H 13 V 9 Z m 5,-3 v 1 h 4 V 6 Z m -6,0 v 1 h 4 V 6 Z M 23,4 v 5 h 5 V 4 Z m 1,1 h 3 V 8 H 24 Z M 4,4 V 9 H 9 V 4 Z M 5,5 H 8 V 8 H 5 Z"
     style="fill:#232629;fill-opacity:1" />
</svg>
